themes/asg/static/images/sponsors/kinvolk.svg

<svg width="62" height="76" viewBox="0 0 62 76" fill="none" xmlns="http://www.w3.org/2000/svg">
<path d="M15.9784 61.7979H0.362305L15.9784 75.6447V61.7979Z" fill="white"/>
<path fill-rule="evenodd" clip-rule="evenodd" d="M0.362305 0.48584H61.9037V61.7965H0.362305V0.48584ZM15.9019 27.9439V24.5591H12.5171V17.7896H9.13233V31.4056H12.5171V27.9439H15.9019ZM25.9781 21.1789H22.5934V31.3333H25.9781V21.1789ZM39.1113 45.1497V21.6101H28.8801V31.8413H32.2649V25.0718H35.7266V45.1497H39.1113ZM22.5934 34.7916V44.7921H32.8246V34.7916H22.5934ZM29.3629 41.4842H25.9781V38.0994H29.3629V41.4842ZM15.8995 21.1H19.2843V24.4848H15.8995V21.1ZM19.2843 27.9468H15.8995V31.3316H19.2843V27.9468ZM15.8995 34.7916H19.2843V41.4842H15.8995V34.7916ZM15.9017 41.4852H12.5169V44.87H15.9017V41.4852ZM49.6726 41.4852H53.0574V44.87H49.6726V41.4852ZM49.6707 38.1021H46.2859V41.4868H49.6707V38.1021ZM49.6726 34.6384H53.0574V38.0232H49.6726V34.6384ZM12.5171 34.7916H9.13233V41.4842H12.5171V34.7916ZM42.8257 31.4089H46.2105V44.7942H42.8257V31.4089Z" fill="white"/>
</svg>

<svg width="62" height="76" fill="none" xmlns="http://www.w3.org/2000/svg"><path d="M15.978 61.798H.362l15.616 13.847V61.798z" fill="#fff"/><path fill-rule="evenodd" clip-rule="evenodd" d="M.362.486h61.542v61.31H.362V.486zm15.54 27.458v-3.385h-3.385v-6.77H9.132v13.617h3.385v-3.462h3.385zm10.076-6.765h-3.385v10.154h3.385V21.18zm13.133 23.97V21.61h-10.23v10.231h3.384v-6.77h3.462V45.15h3.384zM22.593 34.793v10h10.232v-10H22.593zm6.77 6.692h-3.385V38.1h3.385v3.385zM15.9 21.1h3.384v3.385H15.9V21.1zm3.384 6.847H15.9v3.385h3.384v-3.385zM15.9 34.792h3.384v6.692H15.9v-6.692zm.002 6.693h-3.385v3.385h3.385v-3.385zm33.77 0h3.385v3.385h-3.384v-3.385zm-.001-3.383h-3.385v3.385h3.385v-3.385zm.002-3.464h3.384v3.385h-3.384v-3.385zm-37.156.154H9.132v6.692h3.385v-6.692zm30.309-3.383h3.385v13.385h-3.385V31.41z" fill="#fff"/></svg>
